!! 00000] TT[WS
!!!OTL: Mai Cai
!!!ARE: Asia, China, Shanxi Linxian
!! Ethnic Group: Han
!! WII, 49 (2)
!!!SCT: J0467
!!!YEM: Copyright 1995, estate of Helmut Schaffrath.
**kern
*ICvox
*Ivox
*M2/4
*k[b-e-a-]
*E-:
{8cc
8cc
8cc
8ff
=1
8cc
8b-
16cc
16b-
16g
16b-
=2
2cc
=3
8f
8g
8b-
8cc
=4
8b-
8g
4f}
=5
{8f
8f
8b-
8cc
=6
8b-
8f
4b-
=7
8e-
8c
4B-
=8
8cc
8b-
8f
8f
=9
8B-
8c
8e-
8f
=10
8e-
8c
4B-}
==
!!!AGN: Xiaodiao. Maimai, Qingge
!!!ONB: ESAC (Essen Associative Code) Database: CHINA
!!!AMT: simple duple
!!!AIN: vox
!!!EED: Helmut Schaffrath
!!!EEV: 1.0
*-
